X: 8782
T: Cuckoo's Nest, The
R: hornpipe
M: 4/4
K: Bdorian
de|fede fede|fedc B2cd|edcd edcd|edcB A3 A|
Bcde f2a2|bagf e3 e|fedc dcBA|c2B2 B4|
f2b2 b2fg|agfe f3 f|f2 g2 a2 f2|gfe2 e3 e|
f2b2 b2fg|agfe f2de|fedc dcBA|c2 B2 B4|

